public/durar-white.svg

<svg width="221" height="70" viewBox="0 0 221 70" fill="none" xmlns="http://www.w3.org/2000/svg">
<path d="M60.4598 40.301C60.3636 43.9135 59.6134 47.4787 58.2455 50.8236C52.5964 51.6777 47.1977 53.7396 42.4174 56.8687L41.9745 57.161C37.4947 60.1785 33.6702 64.0693 30.7301 68.6003L30.3537 69.1937C30.305 69.1228 30.2563 69.0431 30.212 68.9678C27.284 64.34 23.4392 60.361 18.9144 57.2761C18.7683 57.1787 18.6266 57.0768 18.4716 56.9838C13.7317 53.8375 8.36933 51.7499 2.74977 50.8634C1.36178 47.5093 0.599303 43.9296 0.5 40.301L0.792293 40.332C7.11508 41.0058 13.1824 43.1933 18.4804 46.7093C18.6266 46.8023 18.7683 46.9042 18.9233 47.0016C23.448 50.0865 27.2929 54.0655 30.2208 58.6933C30.2651 58.773 30.3138 58.8483 30.3626 58.9236L30.739 58.3257C33.6805 53.7935 37.5047 49.9 41.9834 46.8776L42.4263 46.5897C47.7417 43.1052 53.8177 40.9513 60.141 40.3099L60.4598 40.301Z" fill="white"/>
<path d="M60.0968 36.231C60.0968 36.0937 60.0702 35.9564 60.0569 35.8191V35.7881C59.4748 30.6982 57.5884 25.8448 54.5804 21.6978C51.5723 17.5508 47.5445 14.2506 42.887 12.1169L42.3954 11.8954L42.1518 11.7936C41.9835 11.7183 41.8152 11.6518 41.6425 11.581C41.4698 11.5101 41.2351 11.4171 41.0269 11.3374L40.7213 11.2267L40.1589 11.0318L39.4725 10.8015C36.8082 9.96027 34.0373 9.50394 31.244 9.44636V7.20103C31.7728 7.21594 32.2993 7.12717 32.794 6.93973C33.337 6.73446 33.83 6.41577 34.2401 6.00491C34.6502 5.59406 34.968 5.10048 35.1722 4.55711C34.8153 4.86315 34.4076 5.10446 33.9676 5.27012C33.2309 5.55246 32.4282 5.61555 31.6564 5.45178C30.8846 5.28801 30.1767 4.90438 29.6181 4.34719C29.0595 3.79 28.6741 3.08306 28.5084 2.31168C28.3427 1.5403 28.4037 0.737443 28.6842 0C28.1432 0.4608 27.7317 1.05469 27.4902 1.72307C27.2487 2.39146 27.1857 3.11124 27.3073 3.81142C27.4289 4.51159 27.731 5.16797 28.1837 5.71579C28.6364 6.2636 29.2241 6.68393 29.8888 6.93531V9.45522C27.1265 9.51297 24.3862 9.96025 21.7489 10.7838L21.306 10.9211L20.779 11.1027L20.6152 11.1603L20.1059 11.3463C19.911 11.4171 19.725 11.4924 19.5346 11.5677L19.4814 11.5898L19.3131 11.6607C19.1404 11.7271 18.9721 11.8024 18.7994 11.8733C18.6267 11.9441 18.3565 12.0637 18.1528 12.1656C13.5137 14.3113 9.50482 17.6148 6.51174 21.7581C3.51865 25.9014 1.64209 30.7452 1.06256 35.8236V35.8723L1.02271 36.3151V36.7226H1.49214H1.63386H1.91287C7.52474 36.8546 13.0252 38.3163 17.9624 40.9874L18.0864 41.0538L18.175 41.1025L18.3123 41.1778C18.3486 41.202 18.3872 41.2228 18.4274 41.2398L18.4805 41.2664L18.7418 41.417L18.8171 41.4613H18.795C18.795 41.4613 26.9747 47.44 29.8667 51.6472L29.9021 51.7048V51.7314C29.9464 51.8022 29.9951 51.8686 30.0438 51.9395C30.0925 52.0104 30.0925 52.0148 30.1235 52.0635L30.5221 52.6747L30.8853 52.0458C30.8975 52.0234 30.9123 52.0026 30.9295 51.9838V51.9484C30.9915 51.8509 31.0536 51.7579 31.1244 51.6649C33.9962 47.4494 37.7803 43.9347 42.1961 41.3815H42.2625L42.3555 41.2974C42.3952 41.2697 42.4367 41.2446 42.4795 41.2221L42.5814 41.1645L42.6567 41.1335L42.6877 41.2221C42.6877 41.0937 42.7143 41.0848 42.732 41.076L42.9933 40.952C43.0168 40.9312 43.0438 40.9147 43.073 40.9032C48.0253 38.229 53.5402 36.7646 59.1668 36.6296H59.6894H60.0038V36.2399L60.0968 36.231ZM29.8888 49.4284C26.9951 45.656 23.3713 42.5051 19.2334 40.1637L19.167 40.0928C19.4947 31.4436 24.136 24.5039 29.8888 23.999V49.4284ZM41.8772 40.1637C37.7578 42.5224 34.1456 45.6726 31.2484 49.4329V23.9946C37.0057 24.5039 41.6425 31.4525 41.9614 40.0972L41.8772 40.1637Z" fill="#F38708"/>
<path d="M218.928 47.7334C216.213 47.7334 214.072 47.1069 212.506 45.8539C211.593 45.1491 210.744 44.3269 209.961 43.3872C209.204 42.4474 208.538 41.5338 207.964 40.6463C207.39 39.7327 206.92 38.9887 206.555 38.4144C206.085 37.7357 205.628 37.1223 205.184 36.5741C204.766 36.026 204.14 35.7519 203.305 35.7519C202.887 35.7519 202.678 35.9738 202.678 36.4175V41.9384C202.678 43.4524 202.783 44.5618 202.991 45.2666C203.044 45.4754 203.265 45.6582 203.657 45.8148C204.075 45.9714 204.518 46.1019 204.988 46.2063C205.458 46.2846 205.811 46.3238 206.046 46.3238C206.15 46.3238 206.202 46.5457 206.202 46.9894C206.202 47.2244 206.176 47.4463 206.124 47.6551C203.279 47.4985 201.425 47.4202 200.564 47.4202C199.859 47.4202 199.063 47.4332 198.175 47.4593C197.314 47.4854 196.622 47.5246 196.1 47.5768L195.317 47.6551C195.239 47.5246 195.2 47.2896 195.2 46.9503C195.2 46.5326 195.239 46.3238 195.317 46.3238C195.552 46.3238 195.865 46.2846 196.257 46.2063C196.648 46.128 197.014 46.0236 197.353 45.8931C197.718 45.7626 197.927 45.619 197.98 45.4624C198.136 44.9925 198.214 43.8048 198.214 41.8993V27.0986C198.214 25.6107 198.136 24.5404 197.98 23.8878C197.927 23.7312 197.718 23.5876 197.353 23.4571C197.014 23.3005 196.635 23.17 196.218 23.0656C195.826 22.9612 195.526 22.909 195.317 22.909C195.213 22.909 195.16 22.7132 195.16 22.3216C195.16 21.9301 195.213 21.6951 195.317 21.6168C198.11 21.6951 199.846 21.7343 200.525 21.7343C201.804 21.7082 202.796 21.6951 203.5 21.6951C204.205 21.6951 204.74 21.6951 205.106 21.6951C205.471 21.669 205.784 21.656 206.046 21.656C207.429 21.656 208.786 21.904 210.118 22.3999C211.449 22.8959 212.545 23.6529 213.407 24.6709C214.294 25.689 214.738 26.9811 214.738 28.5473C214.738 29.487 214.529 30.4007 214.111 31.2882C213.694 32.1757 213.133 32.9588 212.428 33.6375C211.723 34.3162 210.927 34.8383 210.039 35.2037C209.831 35.282 209.778 35.4125 209.883 35.5953C210.614 36.9004 211.345 38.1142 212.075 39.2367C212.806 40.333 213.537 41.338 214.268 42.2517C215.182 43.3741 216.161 44.3399 217.205 45.1491C218.275 45.9323 219.254 46.3238 220.141 46.3238C220.246 46.4543 220.298 46.6632 220.298 46.9503C220.298 47.2374 220.246 47.4724 220.141 47.6551C219.985 47.6812 219.802 47.6942 219.593 47.6942C219.411 47.7203 219.189 47.7334 218.928 47.7334ZM205.184 33.8724H206.202C207.168 33.8724 208.029 33.4156 208.786 32.502C209.569 31.5884 209.961 30.4007 209.961 28.9389C209.961 25.3888 208.447 23.6137 205.419 23.6137C204.297 23.6137 203.54 23.7051 203.148 23.8878C202.835 24.0183 202.678 25.3757 202.678 27.96V32.4628C202.678 33.0371 202.9 33.4156 203.344 33.5983C203.788 33.7811 204.401 33.8724 205.184 33.8724Z" fill="white"/>
<path d="M164.533 47.6159C164.429 47.5115 164.376 47.3157 164.376 47.0286C164.376 46.5587 164.403 46.3238 164.455 46.3238C164.664 46.3238 164.964 46.2716 165.355 46.1672C165.773 46.0628 166.165 45.9323 166.53 45.7756C166.922 45.5929 167.17 45.4102 167.274 45.2275C167.535 44.8359 167.783 44.3921 168.018 43.8962C168.253 43.3741 168.501 42.7998 168.762 42.1733L176.045 24.5535C176.671 22.9612 177.154 22.0214 177.493 21.7343C177.676 21.5516 177.898 21.4602 178.159 21.4602C178.342 21.4602 178.498 21.5255 178.629 21.656L186.852 42.1733C187.06 42.6693 187.256 43.1653 187.439 43.6612C187.648 44.1311 187.844 44.5879 188.026 45.0317C188.131 45.2927 188.366 45.5276 188.731 45.7365C189.096 45.9192 189.475 46.0628 189.867 46.1672C190.258 46.2716 190.558 46.3238 190.767 46.3238C190.872 46.3238 190.924 46.5587 190.924 47.0286C190.924 47.3157 190.898 47.5115 190.845 47.6159L185.912 47.381L180.822 47.6159C180.717 47.5115 180.665 47.2635 180.665 46.872C180.665 46.5065 180.717 46.3238 180.822 46.3238C181.135 46.3238 181.566 46.2455 182.114 46.0889C182.662 45.9323 182.988 45.7495 183.093 45.5407C183.171 45.3841 183.21 45.2144 183.21 45.0317C183.21 44.7706 183.145 44.4182 183.014 43.9745C182.884 43.5307 182.701 42.9826 182.466 42.33L181.096 38.6885C180.991 38.5841 180.9 38.5319 180.822 38.5319C180.404 38.5058 179.908 38.4928 179.334 38.4928C178.786 38.4666 178.159 38.4536 177.454 38.4536C176.045 38.4536 174.557 38.4928 172.991 38.5711C172.834 38.5711 172.756 38.6233 172.756 38.7277L171.268 42.3691C171.007 43.0217 170.811 43.5699 170.68 44.0136C170.576 44.4313 170.524 44.7315 170.524 44.9142C170.524 45.2275 170.667 45.4885 170.955 45.6973C171.111 45.8017 171.346 45.9061 171.659 46.0106C171.999 46.0889 172.338 46.1672 172.677 46.2455C173.017 46.2977 173.252 46.3238 173.382 46.3238C173.46 46.3499 173.5 46.5326 173.5 46.872C173.5 47.0547 173.487 47.2113 173.46 47.3418C173.46 47.4463 173.447 47.5376 173.421 47.6159C172.456 47.5637 171.659 47.5115 171.033 47.4593C170.432 47.4071 169.871 47.381 169.349 47.381C168.827 47.381 168.201 47.394 167.47 47.4202C166.739 47.4463 165.76 47.5115 164.533 47.6159ZM176.75 36.3392C177.689 36.3392 178.76 36.3001 179.96 36.2217L180.039 36.0651L177.063 28.2341L173.852 36.0651C173.852 36.1695 173.878 36.2217 173.93 36.2217C174.844 36.3001 175.784 36.3392 176.75 36.3392Z" fill="white"/>
<path d="M159.278 47.7334C156.564 47.7334 154.423 47.1069 152.857 45.8539C151.943 45.1491 151.095 44.3269 150.312 43.3872C149.555 42.4474 148.889 41.5338 148.315 40.6463C147.741 39.7327 147.271 38.9887 146.905 38.4144C146.436 37.7357 145.979 37.1223 145.535 36.5741C145.117 36.026 144.491 35.7519 143.656 35.7519C143.238 35.7519 143.029 35.9738 143.029 36.4175V41.9384C143.029 43.4524 143.133 44.5618 143.342 45.2666C143.394 45.4754 143.616 45.6582 144.008 45.8148C144.426 45.9714 144.869 46.1019 145.339 46.2063C145.809 46.2846 146.161 46.3238 146.396 46.3238C146.501 46.3238 146.553 46.5457 146.553 46.9894C146.553 47.2244 146.527 47.4463 146.475 47.6551C143.629 47.4985 141.776 47.4202 140.915 47.4202C140.21 47.4202 139.414 47.4332 138.526 47.4593C137.665 47.4854 136.973 47.5246 136.451 47.5768L135.668 47.6551C135.59 47.5246 135.55 47.2896 135.55 46.9503C135.55 46.5326 135.59 46.3238 135.668 46.3238C135.903 46.3238 136.216 46.2846 136.608 46.2063C136.999 46.128 137.365 46.0236 137.704 45.8931C138.069 45.7626 138.278 45.619 138.33 45.4624C138.487 44.9925 138.565 43.8048 138.565 41.8993V27.0986C138.565 25.6107 138.487 24.5404 138.33 23.8878C138.278 23.7312 138.069 23.5876 137.704 23.4571C137.365 23.3005 136.986 23.17 136.568 23.0656C136.177 22.9612 135.877 22.909 135.668 22.909C135.563 22.909 135.511 22.7132 135.511 22.3216C135.511 21.9301 135.563 21.6951 135.668 21.6168C138.461 21.6951 140.197 21.7343 140.875 21.7343C142.155 21.7082 143.146 21.6951 143.851 21.6951C144.556 21.6951 145.091 21.6951 145.457 21.6951C145.822 21.669 146.135 21.656 146.396 21.656C147.78 21.656 149.137 21.904 150.469 22.3999C151.8 22.8959 152.896 23.6529 153.758 24.6709C154.645 25.689 155.089 26.9811 155.089 28.5473C155.089 29.487 154.88 30.4007 154.462 31.2882C154.045 32.1757 153.483 32.9588 152.779 33.6375C152.074 34.3162 151.278 34.8383 150.39 35.2037C150.181 35.282 150.129 35.4125 150.234 35.5953C150.964 36.9004 151.695 38.1142 152.426 39.2367C153.157 40.333 153.888 41.338 154.619 42.2517C155.533 43.3741 156.511 44.3399 157.556 45.1491C158.626 45.9323 159.605 46.3238 160.492 46.3238C160.597 46.4543 160.649 46.6632 160.649 46.9503C160.649 47.2374 160.597 47.4724 160.492 47.6551C160.336 47.6812 160.153 47.6942 159.944 47.6942C159.761 47.7203 159.539 47.7334 159.278 47.7334ZM145.535 33.8724H146.553C147.519 33.8724 148.38 33.4156 149.137 32.502C149.92 31.5884 150.312 30.4007 150.312 28.9389C150.312 25.3888 148.798 23.6137 145.77 23.6137C144.647 23.6137 143.89 23.7051 143.499 23.8878C143.186 24.0183 143.029 25.3757 143.029 27.96V32.4628C143.029 33.0371 143.251 33.4156 143.695 33.5983C144.138 33.7811 144.752 33.8724 145.535 33.8724Z" fill="white"/>
<path d="M117.805 47.5768C114.673 47.5768 112.206 46.637 110.405 44.7576C108.604 42.852 107.703 39.7979 107.703 35.5953V27.0594C107.703 25.4149 107.599 24.3185 107.39 23.7704C107.338 23.6137 107.142 23.4702 106.803 23.3397C106.489 23.2091 106.137 23.1047 105.745 23.0264C105.38 22.922 105.093 22.8698 104.884 22.8698C104.78 22.8698 104.727 22.674 104.727 22.2825C104.727 21.8909 104.766 21.656 104.845 21.5777L110.052 21.8126C110.548 21.8126 112.219 21.7343 115.064 21.5777C115.09 21.6821 115.103 21.7865 115.103 21.8909C115.13 21.9953 115.143 22.0997 115.143 22.2042C115.143 22.6479 115.09 22.8698 114.986 22.8698C114.829 22.8698 114.542 22.922 114.125 23.0264C113.733 23.1047 113.368 23.2091 113.028 23.3397C112.689 23.4702 112.506 23.6137 112.48 23.7704C112.376 24.1619 112.297 24.6448 112.245 25.2191C112.193 25.7934 112.167 26.459 112.167 27.216V36.2217C112.167 38.9104 112.741 41.0639 113.89 42.6824C115.064 44.2747 116.683 45.0708 118.745 45.0708C120.755 45.0708 122.36 44.4182 123.561 43.1131C124.788 41.7818 125.401 39.5891 125.401 36.535V26.9811C125.401 25.3888 125.271 24.3446 125.01 23.8487C124.905 23.6921 124.644 23.5354 124.227 23.3788C123.835 23.2222 123.417 23.0917 122.974 22.9873C122.53 22.8828 122.191 22.8306 121.956 22.8306C121.851 22.8306 121.786 22.6479 121.76 22.2825C121.76 21.917 121.799 21.6821 121.877 21.5777C123.287 21.6821 124.396 21.7604 125.206 21.8126C126.041 21.8387 126.576 21.8518 126.811 21.8518C127.15 21.8518 127.529 21.8387 127.946 21.8126C128.39 21.7865 128.886 21.7473 129.434 21.6951C130.505 21.6168 131.17 21.5777 131.431 21.5777C131.457 21.6821 131.47 21.7865 131.47 21.8909C131.496 21.9692 131.51 22.0736 131.51 22.2042C131.51 22.6218 131.457 22.8306 131.353 22.8306C131.118 22.8306 130.779 22.8828 130.335 22.9873C129.891 23.0656 129.46 23.183 129.043 23.3397C128.625 23.4963 128.338 23.6921 128.181 23.927C127.894 24.6318 127.751 25.7151 127.751 27.1769V36.3784C127.751 40.4505 126.798 43.3611 124.892 45.11C123.979 45.9714 122.935 46.5979 121.76 46.9894C120.611 47.381 119.293 47.5768 117.805 47.5768Z" fill="white"/>
<path d="M75.2356 47.6159C75.1573 47.5376 75.1181 47.3288 75.1181 46.9894C75.1181 46.5457 75.1573 46.3238 75.2356 46.3238C75.4705 46.3238 75.7707 46.2846 76.1361 46.2063C76.5277 46.128 76.8931 46.0236 77.2325 45.8931C77.5979 45.7626 77.8068 45.619 77.859 45.4624C78.0417 44.9403 78.1331 43.7526 78.1331 41.8993V27.0986C78.1331 25.5062 78.0417 24.436 77.859 23.8878C77.8068 23.679 77.611 23.5093 77.2716 23.3788C76.9584 23.2222 76.593 23.1047 76.1753 23.0264C75.7837 22.9481 75.4575 22.909 75.1964 22.909C75.092 22.909 75.0398 22.7132 75.0398 22.3216C75.0398 21.9562 75.092 21.7212 75.1964 21.6168C76.9192 21.6951 78.6551 21.7343 80.4041 21.7343H87.1779C89.2923 21.7343 91.1848 22.0736 92.8554 22.7523C94.5522 23.4049 95.9748 24.3185 97.1234 25.4932C98.298 26.6679 99.1855 28.0122 99.7859 29.5262C100.412 31.0402 100.726 32.6456 100.726 34.3423C100.726 36.8482 100.177 39.1062 99.0811 41.1162C98.0109 43.1 96.4577 44.6793 94.4217 45.8539C92.3856 47.0286 89.958 47.6159 87.1388 47.6159C86.8777 47.6159 86.4731 47.6029 85.925 47.5768C85.4029 47.5768 84.7373 47.5637 83.928 47.5376C83.1188 47.5115 82.4271 47.4854 81.8528 47.4593C81.2785 47.4332 80.8087 47.4332 80.4432 47.4593L75.2356 47.6159ZM87.7653 45.619C93.0643 45.619 95.7138 41.8079 95.7138 34.1857C95.7138 32.2279 95.3875 30.4659 94.7349 28.8997C94.1084 27.3074 93.1817 26.0414 91.9549 25.1016C90.7541 24.1619 89.2662 23.6921 87.4912 23.6921H87.2954C84.7895 23.6921 83.3799 23.9009 83.0666 24.3185C82.7273 24.7623 82.5576 25.5715 82.5576 26.7462V42.095C82.5576 43.5307 82.7012 44.4966 82.9883 44.9925C83.406 45.4102 84.9983 45.619 87.7653 45.619Z" fill="white"/>
</svg>

<svg xmlns="http://www.w3.org/2000/svg" width="221" height="70" fill="none" xmlns:v="https://vecta.io/nano"><path d="M60.46 40.301a29.9 29.9 0 0 1-2.214 10.523 39.75 39.75 0 0 0-15.828 6.045l-.443.292A40.13 40.13 0 0 0 30.73 68.6l-.376.593a3.91 3.91 0 0 1-.142-.226 40.1 40.1 0 0 0-11.298-11.692l-.443-.292a39.58 39.58 0 0 0-15.722-6.12A29.75 29.75 0 0 1 .5 40.301l.292.031a39.57 39.57 0 0 1 17.688 6.377l.443.292a40.1 40.1 0 0 1 11.298 11.692l.142.23.376-.598a40.24 40.24 0 0 1 11.244-11.448l.443-.288a39.6 39.6 0 0 1 17.715-6.28l.319-.009z" fill="#fff"/><path d="M60.097 36.231c0-.137-.027-.275-.04-.412v-.031c-.582-5.09-2.468-9.943-5.477-14.09s-7.036-7.447-11.693-9.581l-.492-.221-.244-.102c-.168-.075-.337-.142-.509-.213l-.616-.244-.306-.111-.562-.195-.686-.23a29.34 29.34 0 0 0-8.228-1.355V7.201a4.05 4.05 0 0 0 1.55-.261c.543-.205 1.036-.524 1.446-.935a4.08 4.08 0 0 0 .932-1.448c-.357.306-.765.547-1.205.713-.737.282-1.539.345-2.311.182a4.09 4.09 0 0 1-3.148-3.14A4.09 4.09 0 0 1 28.684 0a4.09 4.09 0 0 0-1.194 1.723c-.242.668-.305 1.388-.183 2.088a4.09 4.09 0 0 0 2.581 3.124v2.52c-2.762.058-5.503.505-8.14 1.329l-.443.137-.527.182-.164.058-.509.186c-.195.071-.381.146-.571.221l-.053.022-.168.071c-.173.066-.341.142-.514.213s-.443.19-.647.292c-4.639 2.146-8.648 5.449-11.641 9.593s-4.87 8.987-5.449 14.066v.049l-.04.443v.407h.469.142.279a35.48 35.48 0 0 1 16.05 4.265l.124.066.089.049.137.075c.036.024.075.045.115.062l.053.027.261.151.075.044h-.022s8.18 5.979 11.072 10.186l.035.058v.027c.044.071.093.137.142.208s.049.075.08.124l.399.611.363-.629c.012-.022.027-.043.044-.062v-.035c.062-.097.124-.191.195-.283 2.872-4.216 6.656-7.73 11.072-10.283h.066l.093-.084a1.16 1.16 0 0 1 .124-.075l.102-.058.075-.031.031.089c0-.128.027-.137.044-.146l.261-.124a.27.27 0 0 1 .08-.049 35.67 35.67 0 0 1 16.094-4.274h.523.314v-.39l.093-.009zM29.889 49.428a35.4 35.4 0 0 0-10.655-9.265l-.066-.071c.328-8.649 4.969-15.589 10.722-16.094v25.429zm11.988-9.265a36 36 0 0 0-10.629 9.269V23.995c5.757.509 10.394 7.458 10.713 16.103l-.084.066z" fill="#f38708"/><path d="M218.928 47.733c-2.715 0-4.856-.626-6.422-1.88a16.2 16.2 0 0 1-2.545-2.467l-1.997-2.741-1.409-2.232-1.371-1.84c-.418-.548-1.044-.822-1.879-.822-.418 0-.627.222-.627.666v5.521c0 1.514.105 2.623.313 3.328.053.209.274.392.666.548.418.157.861.287 1.331.392.47.078.823.117 1.058.117.104 0 .156.222.156.666a2.75 2.75 0 0 1-.078.666l-5.56-.235-2.389.039-2.075.117-.783.078c-.078-.13-.117-.365-.117-.705 0-.418.039-.626.117-.626.235 0 .548-.039.94-.117s.757-.183 1.096-.313c.365-.13.574-.274.627-.431.156-.47.234-1.658.234-3.563v-14.8c0-1.488-.078-2.558-.234-3.211-.053-.157-.262-.3-.627-.431a6.43 6.43 0 0 0-1.135-.392c-.392-.104-.692-.157-.901-.157-.104 0-.157-.196-.157-.587s.053-.626.157-.705l5.208.117 2.975-.039h1.606l.94-.039c1.383 0 2.74.248 4.072.744s2.427 1.253 3.289 2.271c.887 1.018 1.331 2.31 1.331 3.876 0 .94-.209 1.853-.627 2.741s-.978 1.671-1.683 2.349a7.58 7.58 0 0 1-2.389 1.566c-.208.078-.261.209-.156.392l2.192 3.641 2.193 3.015c.914 1.122 1.893 2.088 2.937 2.897 1.07.783 2.049 1.175 2.936 1.175.105.131.157.339.157.627s-.052.522-.157.705c-.156.026-.339.039-.548.039-.182.026-.404.039-.665.039zm-13.744-13.861h1.018c.966 0 1.827-.457 2.584-1.37.783-.914 1.175-2.101 1.175-3.563 0-3.55-1.514-5.325-4.542-5.325-1.122 0-1.879.091-2.271.274-.313.131-.47 1.488-.47 4.072v4.503c0 .574.222.953.666 1.136s1.057.274 1.84.274zm-40.651 13.744c-.104-.104-.157-.3-.157-.587 0-.47.027-.705.079-.705.209 0 .509-.052.9-.157.418-.104.81-.235 1.175-.392.392-.183.64-.365.744-.548a10.55 10.55 0 0 0 .744-1.331l.744-1.723 7.283-17.62c.626-1.592 1.109-2.532 1.448-2.819.183-.183.405-.274.666-.274a.64.64 0 0 1 .47.196l8.223 20.517.587 1.488.587 1.37c.105.261.34.496.705.705a5.96 5.96 0 0 0 1.136.431c.391.104.691.157.9.157.105 0 .157.235.157.705 0 .287-.026.483-.079.587l-4.933-.235-5.09.235c-.105-.104-.157-.352-.157-.744 0-.365.052-.548.157-.548.313 0 .744-.078 1.292-.235s.874-.339.979-.548c.078-.157.117-.326.117-.509 0-.261-.065-.614-.196-1.057l-.548-1.645-1.37-3.642c-.105-.104-.196-.157-.274-.157l-1.488-.039-1.88-.039-4.463.117c-.157 0-.235.052-.235.157l-1.488 3.641-.588 1.644c-.104.418-.156.718-.156.901 0 .313.143.574.431.783.156.104.391.209.704.313l1.018.235.705.078c.078.026.118.209.118.548a2.36 2.36 0 0 1-.04.47.87.87 0 0 1-.039.274l-2.388-.157-1.684-.078-1.879.039-2.937.196zm12.217-11.277l3.21-.117.079-.157-2.976-7.831-3.211 7.831c0 .104.026.157.078.157l2.82.117zm-17.472 11.394c-2.714 0-4.855-.626-6.421-1.88a16.16 16.16 0 0 1-2.545-2.467l-1.997-2.741-1.41-2.232-1.37-1.84c-.418-.548-1.044-.822-1.879-.822-.418 0-.627.222-.627.666v5.521c0 1.514.104 2.623.313 3.328.052.209.274.392.666.548.418.157.861.287 1.331.392.47.078.822.117 1.057.117.105 0 .157.222.157.666a2.75 2.75 0 0 1-.078.666l-5.56-.235-2.389.039-2.075.117-.783.078c-.078-.13-.118-.365-.118-.705 0-.418.04-.626.118-.626.235 0 .548-.039.94-.117s.757-.183 1.096-.313c.365-.13.574-.274.626-.431.157-.47.235-1.658.235-3.563v-14.8c0-1.488-.078-2.558-.235-3.211-.052-.157-.261-.3-.626-.431a6.43 6.43 0 0 0-1.136-.392c-.391-.104-.691-.157-.9-.157-.105 0-.157-.196-.157-.587s.052-.626.157-.705l5.207.117 2.976-.039h1.606l.939-.039c1.384 0 2.741.248 4.073.744s2.427 1.253 3.289 2.271c.887 1.018 1.331 2.31 1.331 3.876 0 .94-.209 1.853-.627 2.741a7.91 7.91 0 0 1-1.683 2.349 7.56 7.56 0 0 1-2.389 1.566c-.209.078-.261.209-.156.392l2.192 3.641 2.193 3.015c.914 1.122 1.892 2.088 2.937 2.897 1.07.783 2.049 1.175 2.936 1.175.105.131.157.339.157.627s-.052.522-.157.705c-.156.026-.339.039-.548.039-.183.026-.405.039-.666.039zm-13.743-13.861h1.018c.966 0 1.827-.457 2.584-1.37.783-.914 1.175-2.101 1.175-3.563 0-3.55-1.514-5.325-4.542-5.325-1.123 0-1.88.091-2.271.274-.313.131-.47 1.488-.47 4.072v4.503c0 .574.222.953.666 1.136s1.057.274 1.84.274zm-27.73 13.705c-3.132 0-5.599-.94-7.4-2.819-1.801-1.906-2.702-4.96-2.702-9.162V27.06c0-1.645-.104-2.741-.313-3.289-.052-.157-.248-.3-.587-.431-.314-.131-.666-.235-1.058-.313-.365-.104-.652-.157-.861-.157-.104 0-.157-.196-.157-.587s.039-.626.118-.705l5.207.235 5.012-.235a1.29 1.29 0 0 1 .039.313c.027.104.04.209.04.313 0 .444-.053.666-.157.666-.157 0-.444.052-.861.157-.392.078-.757.183-1.097.313s-.522.274-.548.431c-.104.392-.183.874-.235 1.449a22.45 22.45 0 0 0-.078 1.997v9.006c0 2.689.574 4.842 1.723 6.461 1.174 1.592 2.793 2.388 4.855 2.388 2.01 0 3.615-.653 4.816-1.958 1.227-1.331 1.84-3.524 1.84-6.578v-9.554c0-1.592-.13-2.637-.391-3.132-.105-.157-.366-.313-.783-.47a8.84 8.84 0 0 0-1.253-.391c-.444-.105-.783-.157-1.018-.157-.105 0-.17-.183-.196-.548 0-.365.039-.6.117-.705l3.329.235 1.605.039 1.135-.039 1.488-.117 1.997-.117a1.29 1.29 0 0 1 .039.313c.026.078.04.183.04.313 0 .418-.053.626-.157.626-.235 0-.574.052-1.018.157a7.24 7.24 0 0 0-1.292.352c-.418.157-.705.352-.862.587-.287.705-.43 1.788-.43 3.25v9.202c0 4.072-.953 6.983-2.859 8.732a8.37 8.37 0 0 1-3.132 1.879c-1.149.392-2.467.587-3.955.587zm-42.569.039c-.078-.078-.118-.287-.118-.626 0-.444.039-.666.118-.666.235 0 .535-.039.9-.117.392-.078.757-.183 1.096-.313.365-.13.574-.274.626-.431.183-.522.274-1.71.274-3.563V27.099c0-1.592-.091-2.663-.274-3.211-.052-.209-.248-.378-.587-.509a4.16 4.16 0 0 0-1.096-.352c-.392-.078-.718-.117-.979-.117-.104 0-.157-.196-.157-.587 0-.365.052-.6.157-.705l5.208.117h6.774c2.114 0 4.007.339 5.678 1.018 1.697.653 3.119 1.566 4.268 2.741a11.81 11.81 0 0 1 2.662 4.033c.626 1.514.94 3.119.94 4.816 0 2.506-.549 4.764-1.645 6.774-1.07 1.984-2.623 3.563-4.659 4.738s-4.464 1.762-7.283 1.762a28.4 28.4 0 0 1-1.214-.039 64.46 64.46 0 0 1-1.997-.039l-2.075-.078c-.574-.026-1.044-.026-1.41 0l-5.208.157zm12.53-1.997c5.299 0 7.949-3.811 7.949-11.433 0-1.958-.326-3.72-.979-5.286-.626-1.592-1.553-2.858-2.78-3.798-1.201-.94-2.689-1.41-4.464-1.41h-.196c-2.506 0-3.915.209-4.229.626-.339.444-.509 1.253-.509 2.428v15.349c0 1.436.144 2.402.431 2.898.418.418 2.01.627 4.777.627z" fill="#fff"/></svg>
